X:0583
T:The Back of the Change house.
M:C
L:1/8
Q:1/4=72 "Slow"
I: :: :|
Z:Jack Campin * www.campin.me.uk * 2009
K:D
(B|   TA>F)Af                   Te>dBd             |   TA>FAB      {B}d>edD|
   ({D}F)A          Af/a/       (g/f/)(e/d/) {c}B>g|{fg}a>AAB     {B}(d2d)::
(g|    f)>edf                    e>dBg             |   Tf>efg         a>bag|
      (f/Tg/a/).f/ (d/Te/f/).d/ Te>dBg             |   (f/g/a/)A/ A>B d2d :|

